X:659
T:Midwinter
C:Colin Hume, 1996
L:1/4
M:2/2
R:Reel
S:Colin Hume's website,  colinhume.com  - chords can also be printed below the stave.
Q:1/2=106
K:G
V:1
%%MIDI gchord bb
%%MIDI program 71     Clarinet
%%MIDI chordprog 48   String Ensemble 1
%%MIDI bassprog 48    String Ensemble 1
%%MIDI control 10 0   Left speaker
%%MIDI chordprog 48   String Ensemble 1
dc | "G"Bd BA | "/"G2 B2 | "D7"de BA | "Em"G2 gf | "Am"ef ge | "/"c2 AG | "D"FG AF | "/"D2 EF |
V:2
%%MIDI program 79     Ocarina
%%MIDI gchordoff
%%MIDI control 10 127   Right speaker
z2 | "G"B3c | "/"d2 B2 | "D"A4 | "Em"G4 | "Am"A3B | "/"A2E2 | "D"A4- | "/"A4 |
V:1
"G"GD GA | "/"BG Bc | "D"de fd | "Em"g2 ed | "Am"ce dc | "D"df ed | "G"g4- | "/"g4 |
V:2
"G"B3c | "/"d2 B2 | "D"A4 | "Em"G4 | "Am"A2 B2 | "D"A3G | "G"G4- | "/"G4 |
V:1
"Am"A2 "G"GF | "Am"E2 "G/B"G2 | "C"A2 "/D"GF | "Em"E2 ef | "G/B"g2 fg | "Am"e4 | "D"f2 ef | "D7"d2 dc |
V:2
"Am"c2 "G"B2 | "Am"c2 "G/B"d2 | "C"e4 | "Em"B4 | "G/B"d2 B2 | "Am"A2 G2 | "D"F4- | "D7"F4 |
V:1
"G"Bd BA | "/"G2 B2 | "D7"de BA | "Em"G2 ed | "Am"ce dc | "D"df ed | "G"g4- | "/"g4 |]
V:2
"G"B3c | "/"d2 B2 | "D"A4 | "Em"G4 | "Am"A2 B2 | "D"A3 G | "G"G4- | "/"G4 |]

